X:210
T:Fishers Hornpipe. TWC.210
T:Egg Hornpipe. TWC.210
L:1/8
B:Thomas Wilson Companion to the Ballroom 1816
Z:vmp.Mike Hicken 2015 www.village-music-project.org.uk
M:C
Q:1/2=96
K:D
"_Allegro"\
A/B//c//|dAFA GBAG|FAFA GBAG|FDFD GEGE|FDFD ECB,A,|
dAFA GBAG|FAFA GBAG|FAdg fedc|d2d2d2 ||
cd|ecAc ecge|fdAd fdaf|ecAc ecge|fdcB A2A2|
BGDG BGdB|AFDF AFdA|BdcB AGFE|D2d2d2 |]
W:
W: "This is likewise called the Egg Hornpipe"

